dist/linkedin.9ee78bf7.svg

<svg width="18" height="18" viewBox="0 0 18 18" fill="none" xmlns="http://www.w3.org/2000/svg">
<path d="M17 0H1C0.734784 0 0.48043 0.105357 0.292893 0.292893C0.105357 0.48043 0 0.734784 0 1V17C0 17.2652 0.105357 17.5196 0.292893 17.7071C0.48043 17.8946 0.734784 18 1 18H17C17.2652 18 17.5196 17.8946 17.7071 17.7071C17.8946 17.5196 18 17.2652 18 17V1C18 0.734784 17.8946 0.48043 17.7071 0.292893C17.5196 0.105357 17.2652 0 17 0ZM5.339 15.337H2.667V6.747H5.339V15.337ZM4.003 5.574C3.59244 5.574 3.1987 5.41091 2.9084 5.1206C2.61809 4.8303 2.455 4.43655 2.455 4.026C2.455 3.61544 2.61809 3.22171 2.9084 2.9314C3.1987 2.64109 3.59244 2.478 4.003 2.478C4.41356 2.478 4.80729 2.64109 5.0976 2.9314C5.38791 3.22171 5.551 3.61544 5.551 4.026C5.551 4.43655 5.38791 4.8303 5.0976 5.1206C4.80729 5.41091 4.41356 5.574 4.003 5.574ZM15.338 15.337H12.669V11.16C12.669 10.164 12.651 8.883 11.281 8.883C9.891 8.883 9.68 9.969 9.68 11.09V15.338H7.013V6.748H9.573V7.922H9.61C9.965 7.247 10.837 6.535 12.134 6.535C14.838 6.535 15.337 8.313 15.337 10.627V15.337H15.338Z" fill="#C6CBCD"></path>
</svg>

<svg width="18" height="18" fill="none" xmlns="http://www.w3.org/2000/svg"><path d="M17 0H1a1 1 0 0 0-1 1v16a1 1 0 0 0 1 1h16a1 1 0 0 0 1-1V1a1 1 0 0 0-1-1ZM5.339 15.337H2.667v-8.59h2.672v8.59ZM4.003 5.574a1.548 1.548 0 1 1 0-3.096 1.548 1.548 0 0 1 0 3.096Zm11.335 9.763h-2.669V11.16c0-.996-.018-2.277-1.388-2.277-1.39 0-1.601 1.086-1.601 2.207v4.248H7.013v-8.59h2.56v1.174h.037c.355-.675 1.227-1.387 2.524-1.387 2.704 0 3.203 1.778 3.203 4.092v4.71h.001Z" fill="#C6CBCD"></path></svg>
